X:196 
T:Sweeney's Dream* (reel) 
B:CRE3.108 (gan ainm)
F:file ID: cre.3/196sween_d
R:reel
L:1/8
Q:180
M:C
K:D
dFF2 ABdf|gfed fdBc|dFF2 ABdB|AFDF (3EFE DB|
dFF2 ABdf|gfed fdBc|dFF2 ABdB|AFDF E2D2||
faa2 fadf|gfed cdeg|faa2 bfag|(3fga eg fdce|
faa2 bff2|afeg fdBc|dFF2 ABde|(3fga eg f2fe||

%%%

